icons/desktop/16/svg/import-data-16.svg

<svg width="16" height="16" viewBox="0 0 16 16" fill="none" xmlns="http://www.w3.org/2000/svg">
<path d="M13.25 1C14.3542 1 15.25 1.89579 15.25 3V14C15.25 15.1042 14.3542 16 13.25 16H5.75C4.64579 16 3.75 15.1042 3.75 14V11.75H5.25V14C5.25 14.2758 5.47421 14.5 5.75 14.5H13.25C13.5258 14.5 13.75 14.2758 13.75 14V3C13.75 2.72421 13.5258 2.5 13.25 2.5H5.75C5.47421 2.5 5.25 2.72421 5.25 3V5.25H3.75V3C3.75 1.89579 4.64579 1 5.75 1H13.25Z" fill="black"/>
<path d="M7.01465 5.97168C7.0149 5.55189 7.52241 5.34175 7.81934 5.63867L10.3467 8.16699C10.5307 8.35099 10.5307 8.64901 10.3467 8.83301L7.81934 11.3613C7.52341 11.6582 7.01491 11.4481 7.01465 11.0283V9.25H0.0146484V7.75H7.01465V5.97168Z" fill="black"/>
</svg>

<!-- This Source Code Form is subject to the terms of the Mozilla Public
   - License, v. 2.0. If a copy of the MPL was not distributed with this
   - file, You can obtain one at http://mozilla.org/MPL/2.0/. -->
<svg xmlns="http://www.w3.org/2000/svg" width="16" height="16" fill="context-fill" fill-opacity="context-fill-opacity" viewBox="0 0 16 16">
    <path d="M13.25 1a2 2 0 0 1 2 2v11a2 2 0 0 1-2 2h-7.5a2 2 0 0 1-2-2v-2.25h1.5V14a.5.5 0 0 0 .5.5h7.5a.5.5 0 0 0 .5-.5V3a.5.5 0 0 0-.5-.5h-7.5a.5.5 0 0 0-.5.5v2.25h-1.5V3a2 2 0 0 1 2-2z" />
    <path d="M7.015 5.972c0-.42.507-.63.804-.333l2.528 2.528a.47.47 0 0 1 0 .666l-2.528 2.528a.471.471 0 0 1-.804-.333V9.25h-7v-1.5h7z" />
</svg>
